X:SSF 14-18 156
T:
M:6/8
K:G
P:A
d2d B2c dcB A2F G2G A2A |1,3 dcB ABc :|2,4 c2A G3 :|
P:B
F2F E2F GFE F2D FGF E2F |1,2,3,4 GFE D3 :|
P:C
ABA d2B ABA F2A ABA G2E |1,3 GFE F2D :|2,4 GFE D3 :|

